X:1
T:Silent night
T:Silent night
T:Roseau/Lukáš Ondruš
C:Roseau/Lukáš Ondruš
%%score { ( 1 4 ) | ( 2 3 ) }
L:1/8
Q:1/4=71
M:3/4
K:Ab
V:1 treble nm="Piano" snm="Pno."
V:4 treble 
V:2 treble 
V:3 treble 
V:1
"^Adagio"!mp! !arpeggio![ac'e'a']2 !arpeggio![ac'e']2 !arpeggio![gc']2 | %1
 !arpeggio![fae']3 [fad'] !arpeggio![fb]2 |!p! [cea]6- | [cea]6 | ([ce]3 [df] [ce]2) | [Gc]6 | %6
 ([ce]3 [df] [ce]2) | [Gc]6 |!mf! ([dfb]4 [dfb]2) | [Bdg]6[K:bass] |[K:treble]!mp! [Aca]4 [Aca]2 | %11
 ([Gce]4!p! [Ac=e]2) |!mp! [Adf]4 [Adf]2 | ([fa]3 [eg] [df]2) |!p! [Ace]3 [df] [ce]2 | %15
 [Gc]4 [Ac]2 |!mp! [Adf]4 [Adf]2 | ([fa]3 [eg] [df]2) | [Ace]3 [df] [ce]2 | [Gc]6 | %20
!mf! [dfb]4 [dfb]2 | [fad']3 [dfb] [Bdeg]2 | [cea]6 | !arpeggio![ceac']6 | ([cea]2 [Ace]2 [GAc]2) | %25
 [FAe]2 z [FAd] [FB]2 |!mp! [CEA]6 |!p! [A,CA]6 | !arpeggio!!fermata![cec']6 | %29
!pp! !arpeggio!!fermata![E,CE]6 |] %30
V:2
"^dolce\n\n"!ped! !arpeggio![Ace]2!ped! !arpeggio![Ace]2!ped! !arpeggio![Ace]2!ped-up! | %1
!ped! !arpeggio![Acd]3[K:bass][K:treble] [Ad]!ped-up!!ped! !arpeggio![EBd]2!ped-up! | %2
!ped! z E AF E2 | ([CE]2 AF E2)!ped-up! |!ped!!>(! ([EA]2 A,4)!ped-up!!>)! | %5
!ped! ([EA]2 A,F E2)!ped-up! |!ped!!>(! ([CEA]2 A,4)!ped-up!!>)! |!ped! ([EA]2 A,F E2)!ped-up! | %8
[K:bass]!ped!!<(! (E,,E,[K:treble] B,D G2)!ped-up!!<)! | %9
!ped! z2[K:bass]!mp!!ped! F,,2!ped! G,,2!ped-up! |!ped! (A,,E, A,E A2)!ped-up! | %11
!ped! z (A FC!ped! =E2)!ped-up! |[K:bass]!ped!!<(! (D,,D, A,D F2)!ped-up!!<)! | %13
!ped! z2 D,2!ped! z2!ped-up! |!ped! (A,,E, A,E A2)!ped-up! |!ped! [EA]2 A,2!ped! [C=E]2!ped-up! | %16
!ped! (D,,D, A,D F2)!ped-up! |!ped! z2!ped! D,2 z2!ped-up! |!ped!!<(! (A,,E, A,E A2)!ped-up!!<)! | %19
!ped!!>(! [EA]2 A,F E2!ped-up!!>)! |!ped!!<(! (E,,E, B,D G2)!ped-up!!<)! | %21
!ped! E,2 F,2!ped! G,2!ped-up! |!ped! (A,E AF E2)!ped-up! |!ped! !arpeggio![EA]6!ped-up! | %24
!ped!!>(! ([EA]2!ped! [CE]2!ped! [A,CE]2)!ped-up! |!ped! ([A,D]2 (E,,2)!ped! [E,B,D]2)!ped-up! | %26
!ped! [A,,E,A,]6!ped-up! |!ped! [A,,C,E,C]6!ped-up! |!ped! !arpeggio!!fermata![A,EA]6!ped-up! | %29
!ped! !arpeggio!!fermata![A,,,E,,A,,]6!ped-up!!>)! |] %30
V:3
 x6 | x2[K:bass] E,[K:treble] x3 | A,6 | x6 | x6 | x6 | x6 | x6 |[K:bass] x2[K:treble] x4 | %9
 x2[K:bass] x4 | x6 | x6 |[K:bass] x6 | x6 | x6 | x6 | x6 | x6 | x6 | x6 | x6 | x6 | x6 | %23
 x z z F E2 | x6 | x6 | x z z (F, E,2) | x6 | x6 | x6 |] %30
V:4
 x6 | x6 | x6 | x6 | x6 | x6 | x6 | x6 | x6 | x2[K:bass] A,2 B,2 |[K:treble] x6 | x6 | x6 | x6 | %14
 x6 | x6 | x6 | x6 | x6 | x6 | x6 | x2!mp! A2 x2 | x6 | x6 | x6 | x6 | x z z (D C2) | x6 | x6 | %29
 x6 |] %30

